build/category/TestDesignerSolid.svg

<svg xmlns="http://www.w3.org/2000/svg" fill="none" viewBox="0 0 24 24" focusable="false"><path d="M0 0H24V24H0z"/><path fill="#74767B" fill-rule="evenodd" d="M7 4C5.34315 4 4 5.34315 4 7L4 17C4 18.6569 5.34315 20 7 20L11.6057 20C11.9505 20 12.2812 19.863 12.525 19.6192L19.6192 12.525C19.863 12.2812 20 11.9505 20 11.6057L20 7C20 5.34315 18.6569 4 17 4L7 4ZM8.01504 7.65001C8.01504 7.29103 8.30605 7.00001 8.66504 7.00001L15.3348 7.00001C15.6938 7.00001 15.9848 7.29103 15.9848 7.65001C15.9848 8.009 15.6938 8.30001 15.3348 8.30001L12.65 8.30001L12.65 16.3836C12.65 16.7426 12.359 17.0336 12 17.0336C11.641 17.0336 11.35 16.7426 11.35 16.3836L11.35 8.30001L8.66504 8.30001C8.30605 8.30001 8.01504 8.009 8.01504 7.65001ZM20.3853 14.0849C20.6587 13.8116 21.1019 13.8116 21.3753 14.0849L21.9074 14.6171C22.1808 14.8904 22.1808 15.3336 21.9074 15.607L21.2066 16.3078C21.0894 16.425 20.8995 16.425 20.7823 16.3078L19.6845 15.21C19.5673 15.0929 19.5673 14.9029 19.6845 14.7858L20.3853 14.0849ZM19.0003 15.894C18.8831 15.7768 18.6932 15.7768 18.576 15.894L15.05 19.42C14.6835 19.7865 14.4183 20.2415 14.28 20.7409L14.0428 21.5978C13.9801 21.8242 14.1902 22.0315 14.4158 21.9659L15.2741 21.7161C15.7589 21.5751 16.2002 21.3139 16.5573 20.9569L20.0981 17.4161C20.2153 17.2989 20.2153 17.1089 20.0981 16.9918L19.0003 15.894Z"/></svg>

<svg xmlns="http://www.w3.org/2000/svg" fill="none" viewBox="0 0 24 24" focusable="false"><path fill="#74767B" fill-rule="evenodd" d="M7 4C5.34 4 4 5.34 4 7v10c0 1.65 1.34 3 3 3h4.6c.35 0 .68-.14.92-.39l7.09-7.09c.25-.24.39-.57.39-.92V7c0-1.66-1.35-3-3-3zm1.01 3.65c0-.36.29-.65.65-.65h6.67c.36 0 .65.29.65.65 0 .35-.29.65-.65.65h-2.69v8.08c0 .36-.29.65-.64.65-.36 0-.65-.29-.65-.65V8.3H8.66c-.36 0-.65-.3-.65-.65m12.37 6.43c.27-.27.72-.27.99 0l.53.53c.28.28.28.72 0 .99l-.7.7a.29.29 0 0 1-.42 0l-1.1-1.09a.3.3 0 0 1 0-.43zm-1.81 1.81c.12-.12.31-.12.43 0l1.09 1.1c.12.11.12.3 0 .42l-3.54 3.54c-.35.36-.8.62-1.28.76l-.86.25c-.22.07-.43-.14-.37-.37l.24-.85c.13-.5.4-.96.77-1.32z"/></svg>
